X:19076
T:Shingly Beach
R:Slow Air
C:Tom Anderson (1910-1991) 1972
O:Scotland; Shetland
Z:Paul Hardy's Session Tunebook 2022 (see www.paulhardy.net). Creative Commons cc by-nc-sa licenced.
M:4/4
L:1/8
Q:1/4=100
K:G
D|"G"G4 "D7"c4|"G"Bd "Am"cA "D"F2 D2|"G"G2 Bd "Am"E2 Ac|"D"D2 FA "D7"C2 FA|
"G"G4 "D7"c4|"G"B2 AG "D"A2 D2|"G"G2 B2 "Am"E2 A2|"D"D2 "D7"GF "G"G3:|
e|"G"d2 cB "D7"c2 f2|"G"g2 dB "D7"c2 d2|"G"B2 d2 "Am"A2 c2|"G"B2 AG "D7"A2 c2|"G"d2 cB "D7"c2 f2|
"G"g2 dB "C"c2 d2|cB AG "Am"E2 A2|"D"D2 GF "G"G3 e|"D"d2 cB "D7"c2 f2|"G"g2 dB "D"c2 d2|
"G"B2 d2 "Am"A2 c2|"G"B2 AG "D"A2 D2|"G"G4 "Am"c4|"G"Bd "Am"cA "D"F2 D2|"G"G2 B2 "Am"E2 A2|"D7"D2 GF "G"G3|]

